icons/4_Outdated/PayPal v2.svg

<svg xmlns="http://www.w3.org/2000/svg" width="1024" height="1024" fill="none">
   <g clip-path="url(#a)">
      <path fill="#54688C" d="M512 1024c282.77 0 512-229.23 512-512S794.77 0 512 0 0 229.23 0 512s229.23 512 512 512Z"/>
      <path fill="#fff" d="M725.8 499.2C707.6 593.7 644.9 626 564.6 626H552c-9.9 0-18.3 6.8-19.8 16.7l-1 5.2-15.7 99.2-1.1 4.2c-1.5 9.4-9.9 16.7-19.8 16.7h-83c-7.3 0-13-6.3-12-13.6l2.4-15h28.2L457 568.3h42.8c115.6 0 188.4-56.2 210.9-162.5 18.9 22.9 22.7 54.9 15.1 93.4Zm-39.6-113.3c6.3-39.7 0-66.8-21.4-91.3-24-27.1-66.8-38.6-121.6-38.6H384c-11 0-20.9 8.3-22.4 19.3L294.7 696c-1.6 8.3 5.2 15.7 13.6 15.7h98.1L430.9 555l-.5 4.7c1.6-11 11-19.3 22.5-19.3h47c91.9 0 163.9-37.1 184.8-145.1.4-3.1 1-6.2 1.5-9.4Z"/>
   </g>
   <defs>
      <clipPath id="a">
         <path fill="#fff" d="M0 0h1024v1024H0z"/>
      </clipPath>
   </defs>
</svg>

<svg width="1024" height="1024" viewBox="0 0 1024 1024" fill="none" xmlns="http://www.w3.org/2000/svg">
<g clip-path="url(#clip0_3_635)">
<path d="M512 1024C794.77 1024 1024 794.77 1024 512C1024 229.23 794.77 0 512 0C229.23 0 0 229.23 0 512C0 794.77 229.23 1024 512 1024Z" fill="#54688C"/>
<path d="M725.8 499.2C707.6 593.7 644.9 626 564.6 626H552C542.1 626 533.7 632.8 532.2 642.7L531.2 647.9L515.5 747.1L514.4 751.3C512.9 760.7 504.5 768 494.6 768H411.6C404.3 768 398.6 761.7 399.6 754.4L402 739.4H430.2L457 568.3H499.8C615.4 568.3 688.2 512.1 710.7 405.8C729.6 428.7 733.4 460.7 725.8 499.2ZM686.2 385.9C692.5 346.2 686.2 319.1 664.8 294.6C640.8 267.5 598 256 543.2 256H384C373 256 363.1 264.3 361.6 275.3L294.7 696C293.1 704.3 299.9 711.7 308.3 711.7H406.4L430.9 555L430.4 559.7C432 548.7 441.4 540.4 452.9 540.4H499.9C591.8 540.4 663.8 503.3 684.7 395.3C685.1 392.2 685.7 389.1 686.2 385.9Z" fill="white"/>
</g>
<defs>
<clipPath id="clip0_3_635">
<rect width="1024" height="1024" fill="white"/>
</clipPath>
</defs>
</svg>
